icons/pedestrian.svg

<svg width="24" height="24" viewBox="0 0 24 24" fill="none" xmlns="http://www.w3.org/2000/svg">
<g clip-path="url(#clip0)">
<path d="M12 7C12.394 7 12.7841 6.9224 13.1481 6.77164C13.512 6.62087 13.8427 6.3999 14.1213 6.12132C14.3999 5.84274 14.6209 5.51203 14.7716 5.14805C14.9224 4.78407 15 4.39397 15 4C15 3.60603 14.9224 3.21593 14.7716 2.85195C14.6209 2.48797 14.3999 2.15726 14.1213 1.87868C13.8427 1.6001 13.512 1.37913 13.1481 1.22836C12.7841 1.0776 12.394 1 12 1C11.2044 1 10.4413 1.31607 9.87868 1.87868C9.31607 2.44129 9 3.20435 9 4C9 4.79565 9.31607 5.55871 9.87868 6.12132C10.4413 6.68393 11.2044 7 12 7V7Z" stroke="white" stroke-width="2" stroke-linecap="round" stroke-linejoin="round"/>
<path d="M14.562 12.629L17.983 15.307C18.0925 15.4172 18.2227 15.5046 18.366 15.5642C18.5094 15.6239 18.6632 15.6546 18.8185 15.6546C18.9738 15.6546 19.1276 15.6239 19.2709 15.5642C19.4143 15.5046 19.5445 15.4172 19.654 15.307C19.8762 15.0835 20.0008 14.7811 20.0008 14.466C20.0008 14.1509 19.8762 13.8485 19.654 13.625L15.755 8.58C15.5727 8.39629 15.3558 8.25047 15.1169 8.15093C14.878 8.05138 14.6218 8.00009 14.363 8H9.63699C9.3781 7.99954 9.1217 8.05058 8.88272 8.15015C8.64375 8.24973 8.42696 8.39585 8.24499 8.58L4.34599 13.625C4.18007 13.7916 4.0672 14.0036 4.02164 14.2342C3.97608 14.4649 3.99987 14.7039 4.08999 14.921C4.20983 15.2118 4.43993 15.4434 4.72999 15.565C4.94582 15.6551 5.18362 15.6786 5.41292 15.6327C5.64222 15.5867 5.85257 15.4733 6.01699 15.307L9.43699 12.629L6.70699 21.309C6.57545 21.5947 6.56172 21.9207 6.66877 22.2164C6.77583 22.5121 6.99506 22.7537 7.27899 22.889C7.41968 22.9553 7.57212 22.9931 7.7275 23C7.88287 23.007 8.03808 22.983 8.18413 22.9295C8.33017 22.876 8.46414 22.7941 8.57827 22.6884C8.6924 22.5828 8.78442 22.4555 8.84899 22.314L12 17.322L15.151 22.314C15.2156 22.4553 15.3077 22.5823 15.4218 22.6878C15.5359 22.7932 15.6699 22.875 15.8158 22.9283C15.9617 22.9816 16.1168 23.0054 16.272 22.9983C16.4272 22.9912 16.5795 22.9534 16.72 22.887C17.0036 22.7519 17.2227 22.5107 17.3299 22.2154C17.4371 21.9202 17.4239 21.5946 17.293 21.309L14.563 12.629H14.562Z" stroke="white" stroke-width="2" stroke-linecap="round" stroke-linejoin="round"/>
</g>
<defs>
<clipPath id="clip0">
<rect width="24" height="24" fill="white"/>
</clipPath>
</defs>
</svg>

<svg
  width="24"
  height="24"
  viewBox="0 0 24 24"
  xmlns="http://www.w3.org/2000/svg"
  fill="none"
  stroke="currentColor"
  stroke-width="2"
  stroke-linecap="round"
  stroke-linejoin="round"
>
  <g clip-path="url(#a)">
    <path d="M12 7a3 3 0 1 0 0-6 3 3 0 0 0 0 6z" />
    <path d="M14.562 12.629l3.421 2.678a1.177 1.177 0 0 0 1.671 0 1.193 1.193 0 0 0 0-1.682L15.755 8.58A1.962 1.962 0 0 0 14.363 8H9.637a1.952 1.952 0 0 0-1.392.58l-3.899 5.045a1.19 1.19 0 0 0 1.067 2.008c.23-.046.44-.16.604-.326l3.42-2.678-2.73 8.68a1.196 1.196 0 0 0 .572 1.58 1.174 1.174 0 0 0 1.57-.575L12 17.322l3.151 4.992a1.174 1.174 0 0 0 1.569.573 1.196 1.196 0 0 0 .573-1.578l-2.73-8.68h-.001z" />
  </g>
  <defs>
    <clipPath id="a">
      <rect width="24" height="24" />
    </clipPath>
  </defs>
</svg>
